X: 15711
T: Golden Keyboard, The
R: reel
M: 4/4
K: Edorian
|:BDEF GFGA|B2gB fBed|BGEF GBAG|(3FED AD BDAF|
EB,EF GFGA|B2gB fBec|d2ce dBAF|1 FEED E2BA:|2 FEED E3d||
|:e2 ge Be ~e2|beed edBc|dA~A2 fAce|d2ce dBAF|
EB,EF GFGA|B2gB fBec|d2ce dBAF|FEED E3d:|

